X: 0127
T: Lady Glasgow - 8x32S
P: Lady Glasgow
C: Neil Gow's Col'n
B: Miss Milligan's Miscellany v.1 #0127
B: Originally Ours v.1 p.175 #MMM-0127
Z: 2020 John Chambers <jc:trillian.mit.edu>
M: 4/4
L: 1/16
R: strathspey
K: A
%
E4 |:\
"A"A2cd e3c "D"f3d "C#/A"e3c | "A"A2cd e2d2 "C#/A"c2A2 e4 |\
"A"A2cd e3c "D"f3d "C#/A"e3c | "D"fd3 "A"ce3 "E7"B3c d4 :|
"A"a3e c3e "E/A"agfe c3e | "A"a3e c2e2 "E/A"A3c e4 |\
"A"a3e c3e "E/A"agfe c2e2 | "D"df3 "A"ce3 "E7"B3c d4 |
"A"a3e c3e "E/A"agfe c2e2 | "A"a3e c3e "E/A"A2c2 e4 |\
"D"f3a d3f "D"df3 "A"ce3 | "Bm"B3c B3c "E7"d2e2 f4 :|
